X:1
T:Title
%%score { 1 | 2 }
L:1/8
Q:1/4=100
M:6/8
K:C
V:1 treble nm="Grand Piano"
V:2 bass 
V:1
 [EG][FA][EG] [G,CE] [CEG]2 | [CGc][CGB][CFA] [CFA] [CEG]2 | %2
w: Hubert~P.~Main * * * *||
 [B,DG][G,B,D][G,CE] [G,DF][G,EG][B,FA] | [CFA][CEG][G,DF] [G,CE]3 | [EG][FA][EG] [CE] [EG]2 | %5
w: |||
 [Gc][Gd][Gc] [GB] A2 |[M:13/16] cBAGc3/2G | [B,FG][B,Fd]3/2[DFB][CEc]/-[CEc]/-[CEc]-<[CEc] | %8
w: |||
[M:3/4] [G,CE][CG] [Ec] [Ge]3 | [Ad][Ac] [FA] [EG]3 | EE EE [EG]2 | [FA][EG] [CE] [B,D]3 | %12
w: ||||
 [CE][CG] [Ec] [Ge]3 | [Ad][Ac] [FA] [EG]3 | AA A[EG] [Ec]2 | [B,Fd][DFA] [FB] [Ec]3 |] %16
w: ||||
V:2
 [C,C][C,C][C,C] C, C,2 | E,E,F, C, C,2 | G,,G,,G,, G,,G,,G,, | C,C,C, C,3 | %4
 [C,C][C,C][C,C] [C,G,] [C,C]2 | [E,C][E,C][E,C] [F,C] [F,CF]2 | %6
[M:13/16] [^F,A,D][F,B,D][F,C_E][G,C=E][G,E]3/2[G,CE] | G,,G,,3/2G,,C,/-C,/-C,-<C, | %8
[M:3/4] C,[C,E,] [C,G,] [C,C]3 | [F,C][F,C] [F,C] [C,C]3 | [C,G,C][C,G,C] [C,G,C][C,G,C] [C,C]2 | %11
 [C,C][C,C] [C,G,] [G,,G,]3 | [C,G,][C,E,] [C,G,] [C,C]3 | [F,C][F,C] [F,C] [C,C]3 | %14
 [F,CF][F,CF] [F,CF][C,C] [C,G,]2 | G,,G,, [G,,G,] [C,G,]3 |] %16

